X:988
T:Maggie's Pancakes
R:reel
C:Stuart Morrison, Scotland
Z:id:hn-reel-988
M:C|
L:1/8
K:Bm
fB~B2 fgfe | dBAB GBdB | cAAd AAec | AfdB ecAc |
dB~B2 fgfe | dBAB GBdB | cAdA eAce | afec B4 :|
|: f2dB GBdB | caec dB~B2 | f2dB GBdB | caec Bcde |
fdd2 fgfe | dBAB GBdB | cAdA eAce | afec B4 :| 

